icons/light/tsx.svg

<svg width="16" height="16" viewBox="0 0 16 16" fill="none" xmlns="http://www.w3.org/2000/svg">
<path d="M9.70703 1.29297L12.707 4.29297L13 5V14L12 15H10V14H12V6H8V2H3V10H2V2L3 1H9L9.70703 1.29297ZM9 5H12L9 2V5Z" fill="#424242"/>
<path d="M1.95385 12.0897V15H1.11282V12.0897H0.115385V11.4462H2.99231L2.90513 12.0897H1.95385ZM5.98899 13.9615C5.98899 14.1821 5.93087 14.3769 5.81463 14.5462C5.7001 14.7154 5.53515 14.8479 5.31976 14.9436C5.10438 15.0393 4.8454 15.0872 4.54284 15.0872C4.2078 15.0872 3.9266 15.0385 3.69925 14.941C3.47361 14.8419 3.28643 14.7197 3.13771 14.5744L3.56335 14.1026C3.69498 14.2171 3.84027 14.306 3.99925 14.3692C4.15822 14.4308 4.33258 14.4615 4.52233 14.4615C4.64027 14.4615 4.74369 14.4444 4.83258 14.4103C4.92147 14.3761 4.9907 14.3265 5.04027 14.2615C5.08985 14.1966 5.11463 14.1179 5.11463 14.0256C5.11463 13.9385 5.09498 13.865 5.05566 13.8051C5.01634 13.7453 4.94968 13.6915 4.85566 13.6436C4.76335 13.5957 4.63429 13.547 4.46848 13.4974C4.19156 13.412 3.96848 13.3179 3.79925 13.2154C3.63173 13.1128 3.50951 12.994 3.43258 12.859C3.35737 12.7239 3.31976 12.5667 3.31976 12.3872C3.31976 12.1701 3.37959 11.9846 3.49925 11.8308C3.62062 11.6769 3.78301 11.5598 3.98643 11.4795C4.18985 11.3974 4.41378 11.3564 4.65822 11.3564C4.93344 11.3564 5.17617 11.3966 5.38643 11.4769C5.59668 11.5556 5.77874 11.6684 5.93258 11.8154L5.53515 12.2718C5.41549 12.1709 5.28643 12.0966 5.14797 12.0487C5.00951 11.9991 4.86848 11.9744 4.72489 11.9744C4.61891 11.9744 4.52574 11.988 4.4454 12.0154C4.36506 12.041 4.30267 12.0795 4.25822 12.1308C4.21378 12.1821 4.19156 12.2462 4.19156 12.3231C4.19156 12.3983 4.21292 12.4615 4.25566 12.5128C4.29839 12.5641 4.37275 12.6128 4.47874 12.659C4.58472 12.7034 4.73173 12.7556 4.91976 12.8154C5.14369 12.8838 5.33515 12.9658 5.49412 13.0615C5.6548 13.1556 5.77703 13.2744 5.86079 13.4179C5.94626 13.5615 5.98899 13.7427 5.98899 13.9615ZM6.24978 11.4462H7.15491L7.69081 12.5872L8.23952 11.4462H9.1267L8.18311 13.0769L9.21388 15H8.30875L7.68055 13.6436L7.0626 15H6.17029L7.18055 13.1128L6.24978 11.4462Z" fill="#424242"/>
</svg>

<svg xmlns="http://www.w3.org/2000/svg" width="16" height="16" fill="#424242" xmlns:v="https://vecta.io/nano"><path d="M9.707 1.293l3 3L13 5v9l-1 1h-2v-1h2V6H8V2H3v8H2V2l1-1h6l.707.293zM9 5h3L9 2v3zm-7.046 7.09V15h-.841v-2.91H.115v-.644h2.877l-.087.644h-.951zm4.035 1.872a1.01 1.01 0 0 1-.174.585 1.13 1.13 0 0 1-.495.397c-.216.095-.474.144-.777.144-.335 0-.616-.049-.844-.146s-.413-.221-.562-.367l.426-.472a1.51 1.51 0 0 0 .436.267c.159.062.333.092.523.092.118 0 .221-.017.31-.051s.158-.084.208-.149.074-.144.074-.236c0-.087-.02-.161-.059-.221s-.106-.114-.2-.162a2.31 2.31 0 0 0-.387-.146c-.277-.085-.5-.18-.669-.282s-.29-.221-.367-.356-.113-.292-.113-.472a.88.88 0 0 1 .179-.556c.119-.153.284-.271.487-.351a1.78 1.78 0 0 1 .672-.123c.275 0 .518.04.728.12s.392.191.546.338l-.397.456a1.22 1.22 0 0 0-.387-.223 1.28 1.28 0 0 0-.423-.074c-.106 0-.199.014-.279.041s-.143.064-.187.115-.067.115-.067.192.021.138.064.19.117.1.223.146.253.097.441.156a2.57 2.57 0 0 1 .574.246c.161.094.283.213.367.356s.128.325.128.544zm.261-2.515h.905l.536 1.141.549-1.141h.887l-.944 1.631L9.214 15h-.905l-.628-1.356L7.063 15H6.17l1.01-1.887-.931-1.667z"/></svg>
